public/avatar/body/40.svg

<svg xmlns:xlink="http://www.w3.org/1999/xlink" height="82" width="84.85" xmlns="http://www.w3.org/2000/svg"><g transform="translate(37.4 42.25)"><use height="37.95" transform="translate(-12 -17.45)" width="32.1" xlink:href="#a"/><use height="38.95" transform="translate(-12.45 -17.95)" width="33.05" xlink:href="#b"/></g><defs><radialGradient cx="0" cy="0" gradientTransform="matrix(.0002 -.035 .0246 .0001 4 2.75)" gradientUnits="userSpaceOnUse" id="d" r="819.2" spreadMethod="pad"><stop offset=".451" stop-color="#fff"/><stop offset="1" stop-color="#a6e1ff"/></radialGradient><radialGradient cx="0" cy="0" gradientTransform="translate(4.1 17.1) scale(.0186)" gradientUnits="userSpaceOnUse" id="e" r="819.2" spreadMethod="pad"><stop offset="0" stop-color="#f08e00"/><stop offset="1" stop-color="#d82e05"/></radialGradient><path d="M27.35 7.4Q24.95 2.85 20.2.8 17.55-.3 14.7.1 10.1 1.3 7 5.05q-3.15 3.7-4.95 8.65-1.8 4.9-2 9.3-.25 4.4 2.3 8.35 2.45 3.9 7.1 5.5 4.65 1.55 9.65.95 4.95-.85 8.75-4.05 3.85-3.15 4.2-8.1.3-4.8-1.15-9.5-1.4-4.6-3.55-8.75Z" fill="none" stroke="#000" stroke-linecap="round" stroke-linejoin="round" transform="translate(.45 .5)" id="c"/><use height="38.95" width="33.05" xlink:href="#c" id="b"/><g id="a" fill-rule="evenodd"><path d="M-10.45 12.55-11.7 9.1l-.3-3.05.1-1.55q.35-3.95 1.95-8.25Q-8.15-8.7-5-12.4q3.1-3.75 7.7-4.95 2.85-.4 5.5.7 4.75 2.05 7.15 6.6Q17.5-5.9 18.9-1.3q1.2 3.85 1.2 7.8v1.35L20 8h.1l-.05.2q-.15 1.95-.8 3.65l-.8 1.6q-3.5 2.75-5 1.05-1.5-1.75-2-1.8l-1.25.15q-.7.25-1.2.6-.55.35-.8.85-.6.9-2.45 1.2-2.05.35-2.85-1.5-2.2-2.35-4.2-.85-2 1.45-2.75 1.65l-1.6-.25-1.3-1.2q-1.45-2.7-2.95-1.05l-.55.25" fill="url(#d)" transform="translate(12 17.45)"/><path d="m-10.45 12.55.55-.25q1.5-1.65 2.95 1.05l1.3 1.2 1.6.25q.75-.2 2.75-1.65 2-1.5 4.2.85.8 1.85 2.85 1.5 1.85-.3 2.45-1.2.25-.5.8-.85.5-.35 1.2-.6l1.25-.15q.5.05 2 1.8 1.5 1.7 5-1.05l-2.6 2.85q-3.8 3.2-8.75 4.05-5 .6-9.65-.95-4.65-1.6-7.1-5.5l-.8-1.35" fill="url(#e)" transform="translate(12 17.45)"/><path d="M14.4 6.25h3.4v.85l-1.85 1.85h1.95v.95h-3.6V9L16 7.2h-1.6v-.95m-1.2.1q.15-.15.45-.15l.7.2-.45.95-.4-.1q-.25 0-.4.25l-.2 1.2v1.2h-1.4V6.25h1.3v.6l.4-.5m-2.35 2.1h-2.8l.2.5q.2.2.5.2l.4-.1.25-.2 1.35.1-.75.8-1.25.25-1.15-.2-.7-.65q-.25-.45-.25-1.05 0-.85.55-1.4.55-.5 1.5-.5l1.25.2.65.7.25 1.15v.2M4.6 6.65V4.9H6v5H4.7v-.55l-.5.45-.7.2q-.7 0-1.1-.6Q2 8.85 2 8.05q0-.9.45-1.4.4-.45 1.1-.45l.55.1.5.35m-.65.6-.4.2q-.15.2-.15.65t.15.65q.2.2.45.2l.4-.2.2-.7-.2-.6-.45-.2m-2.6.35v2.3h-1.4v-2l-.1-.5-.35-.1-.45.15-.15.7V9.9h-1.4V6.25h1.3v.6l.6-.5.75-.15q.55 0 .9.35l.3 1.05m6.9-.3-.2.45h1.4L9.2 7.2 8.75 7l-.5.3M-3.4 5.85h-1.4V4.9h1.4v.95m0 .4V9.9h-1.4V6.25h1.4" fill="#ff331a" transform="translate(12 17.45)"/><path d="M-8.05 4.9v2.6L-7 6.25h1.7l-1.3 1.3 1.35 2.35H-6.8l-.75-1.45-.5.5v.95H-9.5v-5h1.45" transform="translate(12 17.45)"/></g></defs></svg>

<?xml version="1.0" encoding="UTF-8" standalone="no"?>
<svg xmlns:xlink="http://www.w3.org/1999/xlink" height="82.0px" width="84.85px" xmlns="http://www.w3.org/2000/svg">
  <g transform="matrix(1.0, 0.0, 0.0, 1.0, 37.4, 42.25)">
    <use height="37.95" transform="matrix(1.0, 0.0, 0.0, 1.0, -12.0, -17.45)" width="32.1" xlink:href="#shape0"/>
    <use height="38.95" transform="matrix(1.0, 0.0, 0.0, 1.0, -12.45, -17.95)" width="33.05" xlink:href="#sprite0"/>
  </g>
  <defs>
    <g id="shape0" transform="matrix(1.0, 0.0, 0.0, 1.0, 12.0, 17.45)">
      <path d="M-10.45 12.55 L-11.7 9.1 -12.0 6.05 -11.9 4.5 Q-11.55 0.55 -9.95 -3.75 -8.15 -8.7 -5.0 -12.4 -1.9 -16.15 2.7 -17.35 5.55 -17.75 8.2 -16.65 12.95 -14.6 15.35 -10.05 17.5 -5.9 18.9 -1.3 20.1 2.55 20.1 6.5 L20.1 7.85 20.0 8.0 20.1 8.0 20.05 8.2 Q19.9 10.15 19.25 11.85 L18.45 13.45 Q14.95 16.2 13.45 14.5 11.95 12.75 11.45 12.7 L10.2 12.85 Q9.5 13.1 9.0 13.45 8.45 13.8 8.2 14.3 7.6 15.2 5.75 15.5 3.7 15.85 2.9 14.0 0.7 11.65 -1.3 13.15 -3.3 14.6 -4.05 14.8 L-5.65 14.55 -6.95 13.35 Q-8.4 10.65 -9.9 12.3 L-10.45 12.55" fill="url(#gradient0)" fill-rule="evenodd" stroke="none"/>
      <path d="M-10.45 12.55 L-9.9 12.3 Q-8.4 10.65 -6.95 13.35 L-5.65 14.55 -4.05 14.8 Q-3.3 14.6 -1.3 13.15 0.7 11.65 2.9 14.0 3.7 15.85 5.75 15.5 7.6 15.2 8.2 14.3 8.45 13.8 9.0 13.45 9.5 13.1 10.2 12.85 L11.45 12.7 Q11.95 12.75 13.45 14.5 14.95 16.2 18.45 13.45 L15.85 16.3 Q12.05 19.5 7.1 20.35 2.1 20.95 -2.55 19.4 -7.2 17.8 -9.65 13.9 L-10.45 12.55" fill="url(#gradient1)" fill-rule="evenodd" stroke="none"/>
      <path d="M14.4 6.25 L17.8 6.25 17.8 7.1 15.95 8.95 17.9 8.95 17.9 9.9 14.3 9.9 14.3 9.0 16.0 7.2 14.4 7.2 14.4 6.25 M13.2 6.35 Q13.35 6.2 13.65 6.2 L14.35 6.4 13.9 7.35 13.5 7.25 Q13.25 7.25 13.1 7.5 L12.9 8.7 12.9 9.9 11.5 9.9 11.5 6.25 12.8 6.25 12.8 6.85 13.2 6.35 M10.85 8.45 L8.05 8.45 8.25 8.95 Q8.45 9.15 8.75 9.15 L9.15 9.05 9.4 8.85 10.75 8.95 10.0 9.75 8.75 10.0 7.6 9.8 6.9 9.15 Q6.65 8.7 6.65 8.1 6.65 7.25 7.2 6.7 7.75 6.2 8.7 6.2 L9.95 6.4 10.6 7.1 10.85 8.25 10.85 8.45 M4.6 6.65 L4.6 4.9 6.0 4.9 6.0 9.9 4.7 9.9 4.7 9.35 4.2 9.8 3.5 10.0 Q2.8 10.0 2.4 9.4 2.0 8.85 2.0 8.05 2.0 7.15 2.45 6.65 2.85 6.2 3.55 6.2 L4.1 6.3 4.6 6.65 M3.95 7.25 L3.55 7.45 Q3.4 7.65 3.4 8.1 3.4 8.55 3.55 8.75 3.75 8.95 4.0 8.95 L4.4 8.75 4.6 8.05 4.4 7.45 3.95 7.25 M1.35 7.6 L1.35 9.9 -0.05 9.9 -0.05 7.9 -0.15 7.4 -0.5 7.3 -0.95 7.45 -1.1 8.15 -1.1 9.9 -2.5 9.9 -2.5 6.25 -1.2 6.25 -1.2 6.85 -0.6 6.35 0.15 6.2 Q0.7 6.2 1.05 6.55 L1.35 7.6 M8.25 7.3 L8.05 7.75 9.45 7.75 9.2 7.2 8.75 7.0 8.25 7.3 M-3.4 5.85 L-4.8 5.85 -4.8 4.9 -3.4 4.9 -3.4 5.85 M-3.4 6.25 L-3.4 9.9 -4.8 9.9 -4.8 6.25 -3.4 6.25" fill="#ff331a" fill-rule="evenodd" stroke="none"/>
      <path d="M-8.05 4.9 L-8.05 7.5 -7.0 6.25 -5.3 6.25 -6.6 7.55 -5.25 9.9 -6.8 9.9 -7.55 8.45 -8.05 8.95 -8.05 9.9 -9.5 9.9 -9.5 4.9 -8.05 4.9" fill="#000000" fill-rule="evenodd" stroke="none"/>
    </g>
    <radialGradient cx="0" cy="0" gradientTransform="matrix(2.0E-4, -0.035, 0.0246, 1.0E-4, 4.0, 2.75)" gradientUnits="userSpaceOnUse" id="gradient0" r="819.2" spreadMethod="pad">
      <stop offset="0.45098039215686275" stop-color="#ffffff"/>
      <stop offset="1.0" stop-color="#a6e1ff"/>
    </radialGradient>
    <radialGradient cx="0" cy="0" gradientTransform="matrix(0.0186, 0.0, 0.0, 0.0186, 4.1, 17.1)" gradientUnits="userSpaceOnUse" id="gradient1" r="819.2" spreadMethod="pad">
      <stop offset="0.0" stop-color="#f08e00"/>
      <stop offset="1.0" stop-color="#d82e05"/>
    </radialGradient>
    <g id="sprite0" transform="matrix(1.0, 0.0, 0.0, 1.0, 0.45, 0.5)">
      <use height="38.95" transform="matrix(1.0, 0.0, 0.0, 1.0, -0.45, -0.5)" width="33.05" xlink:href="#shape1"/>
    </g>
    <g id="shape1" transform="matrix(1.0, 0.0, 0.0, 1.0, 0.45, 0.5)">
      <path d="M27.35 7.4 Q24.95 2.85 20.2 0.8 17.55 -0.3 14.7 0.1 10.1 1.3 7.0 5.05 3.85 8.75 2.05 13.7 0.25 18.6 0.05 23.0 -0.2 27.4 2.35 31.35 4.8 35.25 9.45 36.85 14.1 38.4 19.1 37.8 24.05 36.95 27.85 33.75 31.7 30.6 32.05 25.65 32.35 20.85 30.9 16.15 29.5 11.55 27.35 7.4 Z" fill="none" stroke="#000000" stroke-linecap="round" stroke-linejoin="round" stroke-width="1.0"/>
    </g>
  </defs>
</svg>
